Costumes/O-story-3.svg

<?xml version="1.0" encoding="utf-8"?>
<!-- Generator: Adobe Illustrator 18.0.0, SVG Export Plug-In . SVG Version: 6.00 Build 0)  -->
<!DOCTYPE svg PUBLIC "-//W3C//DTD SVG 1.1//EN" "http://www.w3.org/Graphics/SVG/1.1/DTD/svg11.dtd">
<svg version="1.1" id="Layer_2" xmlns="http://www.w3.org/2000/svg" xmlns:xlink="http://www.w3.org/1999/xlink" x="0px" y="0px"
	 viewBox="0 0 44.5 48.1" enable-background="new 0 0 44.5 48.1" xml:space="preserve">
<g>
	<path fill="#41A2F2" d="M40.3,9.9c-0.9-1.7-2.2-3-3.6-4.1c-2.9-2.3-5.8-4.5-9.6-5.1c-1.7-0.3-3.5-0.6-5.2-0.7
		c-1.1-0.1-2.2,0.1-3.3,0.3C17.1,0.7,15.4,1,14,1.7C10.9,3.1,8.2,5.4,5.9,8c-2.1,2.4-4,4.9-4.9,8.1c-0.9,3.2-1.1,6.4-1,9.7
		c0.1,3.5,1.1,6.7,3,9.7c0.9,1.4,1.9,2.6,2.9,4c1.9,2.6,4.3,4.5,7.1,5.9c3.2,1.6,6.6,2.7,10.9,2.7c2.3-0.1,5-0.7,7.4-2.4
		c0.6-0.4,1.2-0.8,1.8-1.2c3.1-2,5.6-4.5,7.4-7.7c1.2-2.1,2.3-4.2,2.9-6.6c0.5-2,1-4,1.2-6.1C44.8,18.9,42.7,14.4,40.3,9.9z
		 M13,40.2c-2.9-2.9-4.2-6.5-5.1-10.3c-0.7-2.7-0.6-5.5-0.4-8.2c0.3-4.1,1.6-7.9,3.6-11.5c2.2-4,5.3-6.9,10.1-7.6
		c1.9-0.3,3.5-0.1,5.2,0.9c1.8,1,3.5,2.2,5.1,3.6c1.8,1.7,2.7,3.9,3.6,6c1.3,2.9,1.7,6,1.8,9.2c0.2,4.5-0.8,8.8-2.1,13
		c-1.2,3.9-3.9,6.6-7.1,8.8c-1.1,0.8-3.1,1.1-4.9,1.1c-2.8,0-5.1-0.7-7.1-2.1C14.7,42.4,14,41.2,13,40.2z"/>
</g>
</svg>

<?xml version="1.0" encoding="UTF-8" standalone="no"?>
<!-- Generator: Adobe Illustrator 18.0.0, SVG Export Plug-In . SVG Version: 6.00 Build 0)  -->

<svg
   version="1.1"
   id="Layer_2"
   x="0px"
   y="0px"
   viewBox="0 0 44.636616 48.1266"
   enable-background="new 0 0 44.5 48.1"
   xml:space="preserve"
   sodipodi:docname="O-story-3.svg"
   width="44.636616"
   height="48.126598"
   xmlns:inkscape="http://www.inkscape.org/namespaces/inkscape"
   xmlns:sodipodi="http://sodipodi.sourceforge.net/DTD/sodipodi-0.dtd"
   xmlns="http://www.w3.org/2000/svg"
   xmlns:svg="http://www.w3.org/2000/svg"><defs
   id="defs9" /><sodipodi:namedview
   id="namedview7"
   pagecolor="#ffffff"
   bordercolor="#000000"
   borderopacity="0.25"
   inkscape:showpageshadow="2"
   inkscape:pageopacity="0.0"
   inkscape:pagecheckerboard="0"
   inkscape:deskcolor="#d1d1d1" />
<g
   id="g4"
   transform="translate(0.02340208,0.02659863)">
	<path
   fill="#41a2f2"
   d="M 40.3,9.9 C 39.4,8.2 38.1,6.9 36.7,5.8 33.8,3.5 30.9,1.3 27.1,0.7 25.4,0.4 23.6,0.1 21.9,0 20.8,-0.1 19.7,0.1 18.6,0.3 17.1,0.7 15.4,1 14,1.7 10.9,3.1 8.2,5.4 5.9,8 c -2.1,2.4 -4,4.9 -4.9,8.1 -0.9,3.2 -1.1,6.4 -1,9.7 0.1,3.5 1.1,6.7 3,9.7 0.9,1.4 1.9,2.6 2.9,4 1.9,2.6 4.3,4.5 7.1,5.9 3.2,1.6 6.6,2.7 10.9,2.7 2.3,-0.1 5,-0.7 7.4,-2.4 0.6,-0.4 1.2,-0.8 1.8,-1.2 3.1,-2 5.6,-4.5 7.4,-7.7 1.2,-2.1 2.3,-4.2 2.9,-6.6 0.5,-2 1,-4 1.2,-6.1 0.2,-5.2 -1.9,-9.7 -4.3,-14.2 z M 13,40.2 C 10.1,37.3 8.8,33.7 7.9,29.9 7.2,27.2 7.3,24.4 7.5,21.7 c 0.3,-4.1 1.6,-7.9 3.6,-11.5 2.2,-4 5.3,-6.9 10.1,-7.6 1.9,-0.3 3.5,-0.1 5.2,0.9 1.8,1 3.5,2.2 5.1,3.6 1.8,1.7 2.7,3.9 3.6,6 1.3,2.9 1.7,6 1.8,9.2 0.2,4.5 -0.8,8.8 -2.1,13 -1.2,3.9 -3.9,6.6 -7.1,8.8 -1.1,0.8 -3.1,1.1 -4.9,1.1 -2.8,0 -5.1,-0.7 -7.1,-2.1 -1,-0.7 -1.7,-1.9 -2.7,-2.9 z"
   id="path2" />
</g>
</svg>
